X: 40298
T: Tolka, The
R: polka
M: 2/4
K: Adorian
|:A>B cg|de cA|B/c/B/A/ Gd|AB GE|
A>B cg|de cA|B/c/B/A/ Gd|BA A2:|
|:d>e f/g/a|f/g/a fd|g/e/d/c/ Bd/c/|B/A/G B/A/G/B/|
A>B cg|de cA|B/c/B/A/ Gd|BA A2:|
|:e>f gf|de- e/f/g|fd g>e|dc Bd-|
d/c/B cg|de cA|B/c/B/A/ Gd|BA A2:|

